apps/scalable/thunderbird.svg

<svg xmlns="http://www.w3.org/2000/svg" style="isolation:isolate" width="256" height="256"><defs><filter id="a" width="270.648" height="254.338" x="-7.32" y="2.95" filterUnits="userSpaceOnUse"><feGaussianBlur xmlns="http://www.w3.org/2000/svg" in="SourceGraphic" stdDeviation="4.294"/><feOffset xmlns="http://www.w3.org/2000/svg" dy="4" result="pf_100_offsetBlur"/><feFlood xmlns="http://www.w3.org/2000/svg" flood-opacity=".4"/><feComposite xmlns="http://www.w3.org/2000/svg" in2="pf_100_offsetBlur" operator="in" result="pf_100_dropShadow"/><feBlend xmlns="http://www.w3.org/2000/svg" in="SourceGraphic" in2="pf_100_dropShadow"/></filter></defs><path fill="#37A6E6" d="M165.685 11.947c74.055 0 84.639 10.557 84.639 84.544v59.251c0 73.986-10.584 84.543-84.639 84.543h-75.37c-74.055 0-84.639-10.557-84.639-84.543V96.491c0-73.987 10.584-84.544 84.639-84.544h75.37z" filter="url(#a)"/><defs><filter id="b" width="166.64" height="150.33" x="44.01" y="71" filterUnits="userSpaceOnUse"><feGaussianBlur xmlns="http://www.w3.org/2000/svg" stdDeviation=".76"/></filter></defs><path d="M64.462 72.779c-7.287-.091-12.183 1.545-14.696 4.561-2.639 3.141-3.991 8.294-3.991 15.456v126.769h163.1V92.796c0-7.162-1.352-12.315-3.991-15.456-2.513-3.016-7.484-4.561-14.696-4.561H64.462z" opacity=".1" filter="url(#b)"/><path fill="#FAF8F6" d="M64.462 72.779c-7.287-.091-12.183 1.545-14.696 4.561-2.639 3.141-3.991 8.294-3.991 15.456v126.769h163.1V92.796c0-7.162-1.352-12.315-3.991-15.456-2.513-3.016-7.484-4.561-14.696-4.561H64.462z"/><path fill="none" d="M89.64 12C15.584 12 5 22.557 5 96.544v59.252c0 73.986 10.584 84.544 84.64 84.544h75.37c74.056 0 84.64-10.558 84.64-84.544V96.544C249.65 22.557 239.066 12 165.01 12H89.64z"/><defs><filter id="c" width="257.216" height="148.398" x="-1.28" y="98.22" filterUnits="userSpaceOnUse"><feGaussianBlur xmlns="http://www.w3.org/2000/svg" stdDeviation="2.698"/></filter></defs><g opacity=".2" filter="url(#c)"><linearGradient id="d" x1="1.133" x2="-.133" y1=".7" y2=".7" gradientTransform="matrix(244.65 0 0 135.832 5 104.508)" gradientUnits="userSpaceOnUse"><stop offset="0%" stop-opacity=".091"/><stop offset="50%" stop-opacity=".848"/><stop offset="100%" stop-opacity="0"/></linearGradient><path fill="url(#d)" fill-rule="evenodd" d="M5 104.508v51.287c0 9.249.166 17.506.6 24.875a198 198 0 0 0 .866 10.401c.364 3.254.808 6.3 1.346 9.149.537 2.848 1.167 5.5 1.903 7.97.736 2.469 1.578 4.755 2.538 6.87a39.468 39.468 0 0 0 3.254 5.848 33.258 33.258 0 0 0 4.041 4.906 33.336 33.336 0 0 0 4.912 4.035 39.492 39.492 0 0 0 5.856 3.249c2.118.96 4.406 1.8 6.878 2.535 2.472.735 5.127 1.365 7.978 1.901 2.852.537 5.899.981 9.157 1.344 3.257.364 6.724.648 10.412.864 7.377.434 15.642.598 24.899.598h75.37c9.257 0 17.523-.164 24.899-.598 3.689-.216 7.154-.5 10.411-.864 3.257-.363 6.305-.807 9.157-1.344 2.851-.536 5.508-1.166 7.979-1.901 2.472-.735 4.761-1.575 6.879-2.535a39.543 39.543 0 0 0 5.856-3.249 33.258 33.258 0 0 0 4.909-4.035 33.276 33.276 0 0 0 4.044-4.906 39.458 39.458 0 0 0 3.251-5.848c.961-2.115 1.805-4.401 2.541-6.87.736-2.47 1.366-5.122 1.903-7.97.537-2.849.982-5.895 1.346-9.149.364-3.254.649-6.716.866-10.401.434-7.369.599-15.626.599-24.875v-51.287L127.325 158.79 5 104.508z"/></g><path fill="#6DC7F1" fill-rule="evenodd" d="M5 101.45v54.345c0 9.249.166 17.506.6 24.875a198 198 0 0 0 .866 10.401c.364 3.254.808 6.3 1.346 9.149.537 2.848 1.167 5.5 1.903 7.97.736 2.469 1.578 4.755 2.538 6.87a39.468 39.468 0 0 0 3.254 5.848 33.258 33.258 0 0 0 4.041 4.906 33.336 33.336 0 0 0 4.912 4.035 39.492 39.492 0 0 0 5.856 3.249c2.118.96 4.406 1.8 6.878 2.535 2.472.735 5.127 1.365 7.978 1.901 2.852.537 5.899.981 9.157 1.344 3.257.364 6.724.648 10.412.864 7.377.434 15.642.598 24.899.598h75.37c9.257 0 17.523-.164 24.899-.598 3.689-.216 7.154-.5 10.411-.864 3.257-.363 6.305-.807 9.157-1.344 2.851-.536 5.508-1.166 7.979-1.901 2.472-.735 4.761-1.575 6.879-2.535a39.543 39.543 0 0 0 5.856-3.249 33.258 33.258 0 0 0 4.909-4.035 33.276 33.276 0 0 0 4.044-4.906 39.458 39.458 0 0 0 3.251-5.848c.961-2.115 1.805-4.401 2.541-6.87.736-2.47 1.366-5.122 1.903-7.97.537-2.849.982-5.895 1.346-9.149.364-3.254.649-6.716.866-10.401.434-7.369.599-15.626.599-24.875V101.45l-122.325 57.34L5 101.45z"/><path fill="#FFF" fill-rule="evenodd" d="M11.483 212.976c.27.673.479 1.442.77 2.084a39.468 39.468 0 0 0 3.254 5.848 33.258 33.258 0 0 0 4.041 4.906 33.336 33.336 0 0 0 4.912 4.035 39.492 39.492 0 0 0 5.856 3.249c2.118.96 4.406 1.8 6.878 2.535 2.472.735 5.127 1.365 7.978 1.901 2.852.537 5.899.981 9.157 1.344 3.257.364 6.724.648 10.412.864 7.377.434 15.642.598 24.899.598h75.37c9.257 0 17.523-.164 24.899-.598 3.689-.216 7.154-.5 10.411-.864 3.257-.363 6.305-.807 9.157-1.344 2.851-.536 5.508-1.166 7.979-1.901 2.472-.735 4.761-1.575 6.879-2.535a39.543 39.543 0 0 0 5.856-3.249 33.258 33.258 0 0 0 4.909-4.035 33.276 33.276 0 0 0 4.044-4.906 39.458 39.458 0 0 0 3.251-5.848c.961-2.115 1.805-4.401 2.541-6.87.736-2.47 1.366-5.122 1.903-7.97.537-2.849.982-5.895 1.346-9.149.364-3.254.649-6.716.866-10.401.434-7.369.599-15.626.599-24.875V101.8L11.483 212.976z" opacity=".2"/><path fill="#37A6E6" d="M5.383 171.701c.091 2.893.06 6.312.217 8.969a198 198 0 0 0 .866 10.401c.364 3.254.808 6.3 1.346 9.149.379 2.012.867 3.809 1.344 5.63l3.999 1.758v-32.492l-7.772-3.415z"/><path fill="#ED3146" d="M5 122.73l8.155 3.583v32.493L5 155.222V122.73z"/><path fill="#37A6E6" d="M245.495 205.85c.477-1.821.965-3.618 1.344-5.63.537-2.849.982-5.895 1.346-9.149.364-3.254.649-6.716.866-10.401.157-2.657.126-6.076.217-8.969l-7.773 3.415v32.492l4-1.758z"/><path fill="#ED3146" d="M249.65 122.73v32.492l-8.155 3.584v-32.493l8.155-3.583z"/><path fill="#FFF" d="M64.462 72.775c-7.287-.091-12.184 1.629-14.697 4.645-2.639 3.141-3.99 8.294-3.99 15.456v2.039c0-7.162 1.351-12.315 3.99-15.456 2.513-3.016 7.41-4.736 14.697-4.645h125.726c7.287 0 12.184 1.629 14.697 4.645 2.639 3.141 3.99 8.294 3.99 15.456v-2.039c0-7.162-1.351-12.315-3.99-15.456-2.513-3.016-7.41-4.645-14.697-4.645H64.462z"/><g filter="url(#e)"><path fill="#304776" d="M56.211 187.898c9.121 13.118 20.894 28.574 34.335 30.647-5.254-3.038-18.403-14.944-22.521-37.535 4.371 8.561 24.105 19.915 30.028 22.521-2.169-2.026-14.997-31.016-21.9-49.991-1.115-3.065-5.774-13.377-5.976-35.192-.035-3.815-.647-3.854 4.84-21.106 5.488-17.252-.683-34.763-.774-35.91L51.356 74.17l-18.771 46.349 12.587 42.469c.236.36 1.075 10.895 11.039 24.91z"/><path fill="#3F7DA7" fill-rule="evenodd" d="M51.356 74.17l12.326 1.761 3.385-16.497-6.769 3.3-8.942 11.436z"/><path fill="#2F67A4" d="M122.505 32.139c-.013.003-15.577.071-22.371 2.256-11.322 2.613-21.479 7.429-31.542 13.007-13.067 8.785-23.769 20.949-32.034 34.26-7.271 12.833-11.677 27.109-13.314 41.737-.974 14.832.723 29.945 6.308 43.82 10.573 23.833 36.745 51.623 60.994 51.326-3.08-.476-5.426-3.595-8.319-5.286-9.732-5.689-18.985-15.249-26.016-25.361-9.965-14.015-10.801-24.546-11.037-24.905l.133.045c-3.329-10.532-5.31-21.423-6.523-32.558-.155-2.488-.466-5.186.431-4.523 3.353 5.315 7.975 6.998 13.797 10.016-5.521-8.684-8.039-18.64-7.132-28.962.911-10.357 6.755-20.398 13.173-27.838 16.813-19.249 41.347-34.821 63.452-47.031v-.003z"/><path fill="#4A96E1" d="M105.56 15.86c-17.789.476-27.779 18.692-34.789 32.752-2.525 4.469-5.143 9.771-7.348 13.992-4.222 6.652-1.744 14.641-.869 21.918-.092 1.995 1.13 6.182.173 6.603-1.931 5.832-3.77 13.357.846 18.448 1.462-6.591 8.655-9.766 14.323-12.538 6.408-2.782 11.594-8.874 17.939-11.798 8.36-4.796 16.433 1.968 27.173 1.968 10.267 0 21.114-3.754 31.275-8.323 2.364 2.446 6.594 6.419 8.443 9.322h-.027c5.296 8.47 8.968 18.316 10.174 27.979 1.505 12.64.244 25.223-7.23 34.794l-.059.013h.052c.154.013 13.557.972 22.498-7.513-6.379 49.321-36.622 75.687-52.548 82.575 21.201 1.427 37.534-15.014 37.534-15.014 3.083-4.391-7.452 10.496-15.014 15.014 13.854-3.879 23.128-5.289 31.871-11.668-.004 0 7.104-3.867 14.515-12.32.986-1.124 2.68-2.685 3.695-3.966.631-.796 1.214-1.613 1.83-2.413.11-.128.233-.257.338-.39 15.598-19.082 23.195-42.807 22.631-64.306.11-26.062-10.468-48.686-28.237-67.389-12.85-13.526-27.444-22.551-40.587-27.029-17.028-4.89-38.038-6.975-53.066-4.131-1.423.475.213-7.824 1.969-9.073-4.213.394-8.78 9.735-12.195 11.813 2.802-4.642 1.318-7.426 4.689-11.813-12.53 2.339-10.992 12.793-18.694 20.096 2.537-13.569 8.133-18.868 18.694-27.602l.001-.001z"/><path fill="#4271A3" d="M70.355 90.928c25.025-.72 9.312-16.229 42.711-45.04-27.21 14.088-53.108 14.069-42.679 45.04h-.032z"/><path fill="#FFF" d="M85.357 78.341c-2.399 4.383-7.998 6.149-11.095 4.499-3.166-1.649-3.149-7.165-.698-11.548 2.365-4.383 12.814-2.416 12.865-2.416.05 0 1.327 5.099-1.072 9.465z"/><path fill="#5C5F60" d="M74.86 98.316s1.348-1.3.645-3.678c-8.4 2.777-12.525-5.264-12.495-5.264.028 0-6.294 16.568 1.252 24.075.654-6.183 10.286-14.81 10.316-14.81"/><circle fill="#5C5F60" r="1" transform="translate(79.309 75.94) scale(3.755)" vector-effect="non-scaling-stroke"/></g><defs><filter id="e" width="270.031" height="270.279" x="-7.02" y="-10.14" filterUnits="userSpaceOnUse"><feGaussianBlur xmlns="http://www.w3.org/2000/svg" in="SourceGraphic" stdDeviation="4.294"/><feOffset xmlns="http://www.w3.org/2000/svg" dy="4" result="pf_100_offsetBlur"/><feFlood xmlns="http://www.w3.org/2000/svg" flood-opacity=".4"/><feComposite xmlns="http://www.w3.org/2000/svg" in2="pf_100_offsetBlur" operator="in" result="pf_100_dropShadow"/><feBlend xmlns="http://www.w3.org/2000/svg" in="SourceGraphic" in2="pf_100_dropShadow"/></filter></defs><g opacity=".4"><linearGradient id="f" x1=".517" x2=".517" y2="1"><stop offset="0%" stop-color="#fff"/><stop offset="12.5%" stop-opacity=".098" stop-color="#fff"/><stop offset="92.5%" stop-opacity=".098"/><stop offset="100%" stop-opacity=".498"/></linearGradient><path fill="none" stroke="url(#f)" stroke-linecap="round" stroke-linejoin="round" stroke-width="4.077" d="M165.685 11.947c74.055 0 84.639 10.557 84.639 84.544v59.251c0 73.986-10.584 84.543-84.639 84.543h-75.37c-74.055 0-84.639-10.557-84.639-84.543V96.491c0-73.987 10.584-84.544 84.639-84.544h75.37z" vector-effect="non-scaling-stroke"/></g></svg>

<svg xmlns="http://www.w3.org/2000/svg" style="isolation:isolate" width="256" height="256" viewBox="0 0 256 256">
 <defs>
  <filter id="HmUsUF5MCkhoAWznQI80yXBl97pqM6yX" width="270.648" height="254.338" x="-7.32" y="2.95" filterUnits="userSpaceOnUse">
   <feGaussianBlur xmlns="http://www.w3.org/2000/svg" in="SourceGraphic" stdDeviation="4.294"/>
   <feOffset xmlns="http://www.w3.org/2000/svg" dx="0" dy="4" result="pf_100_offsetBlur"/>
   <feFlood xmlns="http://www.w3.org/2000/svg" flood-opacity=".4"/>
   <feComposite xmlns="http://www.w3.org/2000/svg" in2="pf_100_offsetBlur" operator="in" result="pf_100_dropShadow"/>
   <feBlend xmlns="http://www.w3.org/2000/svg" in="SourceGraphic" in2="pf_100_dropShadow" mode="normal"/>
  </filter>
 </defs>
 <g filter="url(#HmUsUF5MCkhoAWznQI80yXBl97pqM6yX)">
  <path fill="#37A6E6" d="M 165.685 11.947 C 239.74 11.947 250.324 22.504 250.324 96.491 L 250.324 155.742 C 250.324 229.728 239.74 240.285 165.685 240.285 L 90.315 240.285 C 16.26 240.285 5.676 229.728 5.676 155.742 L 5.676 96.491 C 5.676 22.504 16.26 11.947 90.315 11.947 L 165.685 11.947 Z"/>
 </g>
 <g>
  <defs>
   <filter id="2r3beGnGswBnEPuN2VPfsI4gL05aRaaX" width="166.64" height="150.33" x="44.01" y="71" filterUnits="userSpaceOnUse">
    <feGaussianBlur xmlns="http://www.w3.org/2000/svg" stdDeviation=".76"/>
   </filter>
  </defs>
  <g opacity=".1" filter="url(#2r3beGnGswBnEPuN2VPfsI4gL05aRaaX)">
   <path d="M 64.462 72.779 C 57.175 72.688 52.279 74.324 49.766 77.34 C 47.127 80.481 45.775 85.634 45.775 92.796 L 45.775 219.565 L 208.875 219.565 L 208.875 92.796 C 208.875 85.634 207.523 80.481 204.884 77.34 C 202.371 74.324 197.4 72.779 190.188 72.779 L 178.025 72.779 L 93.475 72.779 L 64.462 72.779 Z"/>
  </g>
  <path fill="#FAF8F6" d="M 64.462 72.779 C 57.175 72.688 52.279 74.324 49.766 77.34 C 47.127 80.481 45.775 85.634 45.775 92.796 L 45.775 219.565 L 208.875 219.565 L 208.875 92.796 C 208.875 85.634 207.523 80.481 204.884 77.34 C 202.371 74.324 197.4 72.779 190.188 72.779 L 178.025 72.779 L 93.475 72.779 L 64.462 72.779 Z"/>
  <path fill="none" d="M 89.64 12 C 15.584 12 5 22.557 5 96.544 L 5 155.796 C 5 229.782 15.584 240.34 89.64 240.34 L 165.01 240.34 C 239.066 240.34 249.65 229.782 249.65 155.796 L 249.65 96.544 C 249.65 22.557 239.066 12 165.01 12 L 89.64 12 Z"/>
  <defs>
   <filter id="sTJPYaCchYSUtqX9Lx5HhFDDN9Fb20TD" width="257.216" height="148.398" x="-1.28" y="98.22" filterUnits="userSpaceOnUse">
    <feGaussianBlur xmlns="http://www.w3.org/2000/svg" stdDeviation="2.698"/>
   </filter>
  </defs>
  <g opacity=".2" filter="url(#sTJPYaCchYSUtqX9Lx5HhFDDN9Fb20TD)">
   <linearGradient id="_lgradient_28" x1="1.133" x2="-.133" y1=".7" y2=".7" gradientTransform="matrix(244.65,0,0,135.832,5,104.508)" gradientUnits="userSpaceOnUse">
    <stop offset="0%" stop-opacity=".091" style="stop-color:rgb(0,0,0)"/>
    <stop offset="50%" stop-opacity=".848" style="stop-color:rgb(0,0,0)"/>
    <stop offset="100%" stop-opacity="0" style="stop-color:rgb(0,0,0)"/>
   </linearGradient>
   <path fill="url(#_lgradient_28)" fill-rule="evenodd" d="M 5 104.508 L 5 155.795 C 5 165.044 5.166 173.301 5.6 180.67 C 5.817 184.355 6.101 187.817 6.466 191.071 C 6.83 194.325 7.274 197.371 7.812 200.22 C 8.349 203.068 8.979 205.72 9.715 208.19 C 10.451 210.659 11.293 212.945 12.253 215.06 C 13.214 217.176 14.295 219.12 15.507 220.908 C 16.718 222.696 18.06 224.328 19.548 225.814 C 21.036 227.3 22.67 228.639 24.46 229.849 C 26.25 231.059 28.197 232.139 30.316 233.098 C 32.434 234.058 34.722 234.898 37.194 235.633 C 39.666 236.368 42.321 236.998 45.172 237.534 C 48.024 238.071 51.071 238.515 54.329 238.878 C 57.586 239.242 61.053 239.526 64.741 239.742 C 72.118 240.176 80.383 240.34 89.64 240.34 L 165.01 240.34 C 174.267 240.34 182.533 240.176 189.909 239.742 C 193.598 239.526 197.063 239.242 200.32 238.878 C 203.577 238.515 206.625 238.071 209.477 237.534 C 212.328 236.998 214.985 236.368 217.456 235.633 C 219.928 234.898 222.217 234.058 224.335 233.098 C 226.453 232.139 228.401 231.059 230.191 229.849 C 231.981 228.639 233.613 227.3 235.1 225.814 C 236.588 224.328 237.933 222.696 239.144 220.908 C 240.356 219.12 241.434 217.176 242.395 215.06 C 243.356 212.945 244.2 210.659 244.936 208.19 C 245.672 205.72 246.302 203.068 246.839 200.22 C 247.376 197.371 247.821 194.325 248.185 191.071 C 248.549 187.817 248.834 184.355 249.051 180.67 C 249.485 173.301 249.65 165.044 249.65 155.795 L 249.65 104.508 L 127.325 158.79 L 5 104.508 Z"/>
  </g>
  <path fill="#6DC7F1" fill-rule="evenodd" d="M 5 101.45 L 5 155.795 C 5 165.044 5.166 173.301 5.6 180.67 C 5.817 184.355 6.101 187.817 6.466 191.071 C 6.83 194.325 7.274 197.371 7.812 200.22 C 8.349 203.068 8.979 205.72 9.715 208.19 C 10.451 210.659 11.293 212.945 12.253 215.06 C 13.214 217.176 14.295 219.12 15.507 220.908 C 16.718 222.696 18.06 224.328 19.548 225.814 C 21.036 227.3 22.67 228.639 24.46 229.849 C 26.25 231.059 28.197 232.139 30.316 233.098 C 32.434 234.058 34.722 234.898 37.194 235.633 C 39.666 236.368 42.321 236.998 45.172 237.534 C 48.024 238.071 51.071 238.515 54.329 238.878 C 57.586 239.242 61.053 239.526 64.741 239.742 C 72.118 240.176 80.383 240.34 89.64 240.34 L 165.01 240.34 C 174.267 240.34 182.533 240.176 189.909 239.742 C 193.598 239.526 197.063 239.242 200.32 238.878 C 203.577 238.515 206.625 238.071 209.477 237.534 C 212.328 236.998 214.985 236.368 217.456 235.633 C 219.928 234.898 222.217 234.058 224.335 233.098 C 226.453 232.139 228.401 231.059 230.191 229.849 C 231.981 228.639 233.613 227.3 235.1 225.814 C 236.588 224.328 237.933 222.696 239.144 220.908 C 240.356 219.12 241.434 217.176 242.395 215.06 C 243.356 212.945 244.2 210.659 244.936 208.19 C 245.672 205.72 246.302 203.068 246.839 200.22 C 247.376 197.371 247.821 194.325 248.185 191.071 C 248.549 187.817 248.834 184.355 249.051 180.67 C 249.485 173.301 249.65 165.044 249.65 155.795 L 249.65 101.45 L 127.325 158.79 L 5 101.45 Z"/>
  <g opacity=".2">
   <path fill="#FFFFFF" fill-rule="evenodd" d="M 11.483 212.976 C 11.753 213.649 11.962 214.418 12.253 215.06 C 13.214 217.176 14.295 219.12 15.507 220.908 C 16.718 222.696 18.06 224.328 19.548 225.814 C 21.036 227.3 22.67 228.639 24.46 229.849 C 26.25 231.059 28.197 232.139 30.316 233.098 C 32.434 234.058 34.722 234.898 37.194 235.633 C 39.666 236.368 42.321 236.998 45.172 237.534 C 48.024 238.071 51.071 238.515 54.329 238.878 C 57.586 239.242 61.053 239.526 64.741 239.742 C 72.118 240.176 80.383 240.34 89.64 240.34 L 165.01 240.34 C 174.267 240.34 182.533 240.176 189.909 239.742 C 193.598 239.526 197.063 239.242 200.32 238.878 C 203.577 238.515 206.625 238.071 209.477 237.534 C 212.328 236.998 214.985 236.368 217.456 235.633 C 219.928 234.898 222.217 234.058 224.335 233.098 C 226.453 232.139 228.401 231.059 230.191 229.849 C 231.981 228.639 233.613 227.3 235.1 225.814 C 236.588 224.328 237.933 222.696 239.144 220.908 C 240.356 219.12 241.434 217.176 242.395 215.06 C 243.356 212.945 244.2 210.659 244.936 208.19 C 245.672 205.72 246.302 203.068 246.839 200.22 C 247.376 197.371 247.821 194.325 248.185 191.071 C 248.549 187.817 248.834 184.355 249.051 180.67 C 249.485 173.301 249.65 165.044 249.65 155.795 L 249.65 101.8 L 11.483 212.976 Z"/>
  </g>
  <path fill="#37A6E6" d="M 5.383 171.701 C 5.474 174.594 5.443 178.013 5.6 180.67 C 5.817 184.355 6.101 187.817 6.466 191.071 C 6.83 194.325 7.274 197.371 7.812 200.22 C 8.191 202.232 8.679 204.029 9.156 205.85 L 13.155 207.608 L 13.155 175.116 L 5.383 171.701 Z"/>
  <path fill="#ED3146" d="M 5 122.73 L 13.155 126.313 L 13.155 158.806 L 5 155.222 L 5 122.73 Z"/>
  <path fill="#37A6E6" d="M 245.495 205.85 C 245.972 204.029 246.46 202.232 246.839 200.22 C 247.376 197.371 247.821 194.325 248.185 191.071 C 248.549 187.817 248.834 184.355 249.051 180.67 C 249.208 178.013 249.177 174.594 249.268 171.701 L 241.495 175.116 L 241.495 207.608 L 245.495 205.85 Z"/>
  <path fill="#ED3146" d="M 249.65 122.73 L 249.65 155.222 L 241.495 158.806 L 241.495 126.313 L 249.65 122.73 Z"/>
  <path fill="#FFFFFF" d="M 64.462 72.775 C 57.175 72.684 52.278 74.404 49.765 77.42 C 47.126 80.561 45.775 85.714 45.775 92.876 L 45.775 94.915 C 45.775 87.753 47.126 82.6 49.765 79.459 C 52.278 76.443 57.175 74.723 64.462 74.814 L 97.552 74.814 L 178.025 74.814 L 190.188 74.814 C 197.475 74.814 202.372 76.443 204.885 79.459 C 207.524 82.6 208.875 87.753 208.875 94.915 L 208.875 92.876 C 208.875 85.714 207.524 80.561 204.885 77.42 C 202.372 74.404 197.475 72.775 190.188 72.775 L 178.025 72.775 L 97.552 72.775 L 64.462 72.775 Z"/>
 </g>
 <g filter="url(#Vt50H9UD2uKj8HTalDOoqlX9FEwVmD0z)">
  <path fill="#304776" d="M 56.211 187.898 C 65.332 201.016 77.105 216.472 90.546 218.545 C 85.292 215.507 72.143 203.601 68.025 181.01 C 72.396 189.571 92.13 200.925 98.053 203.531 C 95.884 201.505 83.056 172.515 76.153 153.54 C 75.038 150.475 70.379 140.163 70.177 118.348 C 70.142 114.533 69.53 114.494 75.017 97.242 C 80.505 79.99 74.334 62.479 74.243 61.332 L 51.356 74.17 L 32.585 120.519 L 45.172 162.988 C 45.408 163.348 46.247 173.883 56.211 187.898 L 56.211 187.898 Z"/>
  <path fill="#3F7DA7" fill-rule="evenodd" d="M 51.356 74.17 L 63.682 75.931 L 67.067 59.434 L 60.298 62.734 L 51.356 74.17 Z"/>
  <path fill="#2F67A4" d="M 122.505 32.139 C 122.492 32.142 106.928 32.21 100.134 34.395 C 88.812 37.008 78.655 41.824 68.592 47.402 C 55.525 56.187 44.823 68.351 36.558 81.662 C 29.287 94.495 24.881 108.771 23.244 123.399 C 22.27 138.231 23.967 153.344 29.552 167.219 C 40.125 191.052 66.297 218.842 90.546 218.545 C 87.466 218.069 85.12 214.95 82.227 213.259 C 72.495 207.57 63.242 198.01 56.211 187.898 C 46.246 173.883 45.41 163.352 45.174 162.993 L 45.307 163.038 C 41.978 152.506 39.997 141.615 38.784 130.48 C 38.629 127.992 38.318 125.294 39.215 125.957 C 42.568 131.272 47.19 132.955 53.012 135.973 C 47.491 127.289 44.973 117.333 45.88 107.011 C 46.791 96.654 52.635 86.613 59.053 79.173 C 75.866 59.924 100.4 44.352 122.505 32.142 L 122.505 32.139 Z"/>
  <path fill="#4A96E1" d="M 105.56 15.86 C 87.771 16.336 77.781 34.552 70.771 48.612 C 68.246 53.081 65.628 58.383 63.423 62.604 C 59.201 69.256 61.679 77.245 62.554 84.522 C 62.462 86.517 63.684 90.704 62.727 91.125 C 60.796 96.957 58.957 104.482 63.573 109.573 C 65.035 102.982 72.228 99.807 77.896 97.035 C 84.304 94.253 89.49 88.161 95.835 85.237 C 104.195 80.441 112.268 87.205 123.008 87.205 C 133.275 87.205 144.122 83.451 154.283 78.882 C 156.647 81.328 160.877 85.301 162.726 88.204 L 162.699 88.204 C 167.995 96.674 171.667 106.52 172.873 116.183 C 174.378 128.823 173.117 141.406 165.643 150.977 C 165.642 150.977 165.584 150.99 165.584 150.99 C 165.584 150.99 165.635 150.99 165.636 150.99 C 165.79 151.003 179.193 151.962 188.134 143.477 C 181.755 192.798 151.512 219.164 135.586 226.052 C 156.787 227.479 173.12 211.038 173.12 211.038 C 176.203 206.647 165.668 221.534 158.106 226.052 C 171.96 222.173 181.234 220.763 189.977 214.384 C 189.973 214.384 197.081 210.517 204.492 202.064 C 205.478 200.94 207.172 199.379 208.187 198.098 C 208.818 197.302 209.401 196.485 210.017 195.685 C 210.127 195.557 210.25 195.428 210.355 195.295 C 225.953 176.213 233.55 152.488 232.986 130.989 C 233.096 104.927 222.518 82.303 204.749 63.6 C 191.899 50.074 177.305 41.049 164.162 36.571 C 147.134 31.681 126.124 29.596 111.096 32.44 C 109.673 32.915 111.309 24.616 113.065 23.367 C 108.852 23.761 104.285 33.102 100.87 35.18 C 103.672 30.538 102.188 27.754 105.559 23.367 C 93.029 25.706 94.567 36.16 86.865 43.463 C 89.402 29.894 94.998 24.595 105.559 15.861 L 105.56 15.86 Z"/>
  <path fill="#4271A3" d="M 70.355 90.928 C 95.38 90.208 79.667 74.699 113.066 45.888 C 85.856 59.976 59.958 59.957 70.387 90.928 L 70.356 90.928 L 70.355 90.928 Z"/>
  <path fill="#FFFFFF" d="M 85.357 78.341 C 82.958 82.724 77.359 84.49 74.262 82.84 C 71.096 81.191 71.113 75.675 73.564 71.292 C 75.929 66.909 86.378 68.876 86.429 68.876 C 86.479 68.876 87.756 73.975 85.357 78.341 L 85.357 78.341 Z"/>
  <path fill="#5C5F60" d="M 74.86 98.316 C 74.86 98.316 76.208 97.016 75.505 94.638 C 67.105 97.415 62.98 89.374 63.01 89.374 C 63.038 89.374 56.716 105.942 64.262 113.449 C 64.916 107.266 74.548 98.639 74.578 98.639"/>
  <circle fill="#5C5F60" cx="0" cy="0" r="1" transform="matrix(3.755,0,0,3.755,79.309,75.94)" vector-effect="non-scaling-stroke"/>
 </g>
 <defs>
  <filter id="Vt50H9UD2uKj8HTalDOoqlX9FEwVmD0z" width="270.031" height="270.279" x="-7.02" y="-10.14" filterUnits="userSpaceOnUse">
   <feGaussianBlur xmlns="http://www.w3.org/2000/svg" in="SourceGraphic" stdDeviation="4.294"/>
   <feOffset xmlns="http://www.w3.org/2000/svg" dx="0" dy="4" result="pf_100_offsetBlur"/>
   <feFlood xmlns="http://www.w3.org/2000/svg" flood-opacity=".4"/>
   <feComposite xmlns="http://www.w3.org/2000/svg" in2="pf_100_offsetBlur" operator="in" result="pf_100_dropShadow"/>
   <feBlend xmlns="http://www.w3.org/2000/svg" in="SourceGraphic" in2="pf_100_dropShadow" mode="normal"/>
  </filter>
 </defs>
 <g opacity=".4">
  <linearGradient id="_lgradient_29" x1=".517" x2=".517" y1="0" y2="1">
   <stop offset="0%" style="stop-color:rgb(255,255,255)"/>
   <stop offset="12.5%" stop-opacity=".098" style="stop-color:rgb(255,255,255)"/>
   <stop offset="92.5%" stop-opacity=".098" style="stop-color:rgb(0,0,0)"/>
   <stop offset="100%" stop-opacity=".498" style="stop-color:rgb(0,0,0)"/>
  </linearGradient>
  <path fill="none" stroke="url(#_lgradient_29)" stroke-linecap="round" stroke-linejoin="round" stroke-width="4.077" d="M 165.685 11.947 C 239.74 11.947 250.324 22.504 250.324 96.491 L 250.324 155.742 C 250.324 229.728 239.74 240.285 165.685 240.285 L 90.315 240.285 C 16.26 240.285 5.676 229.728 5.676 155.742 L 5.676 96.491 C 5.676 22.504 16.26 11.947 90.315 11.947 L 165.685 11.947 Z" vector-effect="non-scaling-stroke"/>
 </g>
</svg>
